X: 1
T:N°83 "Marche"
N:page 102
S:Manuscrit Wandembrile (1778), Archives de l'Etat à Namur
Z:ABC transcription Olivier VIENNE troubadourwallon@gmail.com
K:Gmaj
M:C|
L:1/8
d2 BB B2 (3cde|d2 BB B2 (3cde|ddcB ccBA|(3BcB (3ABA G2 (3ABc|
B2 BB (3BAG (3dcB|A2 AA A2 (3ABc|(3BAG (3dcB (3gfe (3dcB|A2 AA A4:|
|:A2 AA ABGA|(3BAG (3dcB (3gfe (3dcB|A2 AA A2 (3BAG|A2 AA A4|
f2 ff fdef|g3 f/2e/2 d2 c2|(3Bcd (3efg B2 A2|G2 GG G4:|]





